icons/hotel-bed-line.svg

<svg viewBox="0 0 24 24" fill="currentColor" xmlns="http://www.w3.org/2000/svg">
    <path d="M22 11V20H20V17H4V20H2V4H4V14H12V7H18C20.2091 7 22 8.79086 22 11ZM20 14V11C20 9.89543 19.1046 9 18 9H14V14H20ZM8 11C8.55228 11 9 10.5523 9 10C9 9.44772 8.55228 9 8 9C7.44772 9 7 9.44772 7 10C7 10.5523 7.44772 11 8 11ZM8 13C6.34315 13 5 11.6569 5 10C5 8.34315 6.34315 7 8 7C9.65685 7 11 8.34315 11 10C11 11.6569 9.65685 13 8 13Z"/>
</svg>

<svg xmlns="http://www.w3.org/2000/svg" viewBox="0 0 24 24">
    <g>
        <path fill="none" d="M0 0h24v24H0z"/>
        <path d="M22 11v9h-2v-3H4v3H2V4h2v10h8V7h6a4 4 0 0 1 4 4zm-2 3v-3a2 2 0 0 0-2-2h-4v5h6zM8 11a1 1 0 1 0 0-2 1 1 0 0 0 0 2zm0 2a3 3 0 1 1 0-6 3 3 0 0 1 0 6z"/>
    </g>
</svg>
